!!!COM: Palestrina, Giovanni Perluigi da
!!!OPR: Missa Ecce sacerdos magnus
!!!OMD: Sanctus
!!!OTL: Hosanna
**kern	**kern	**kern	**kern
*Ibass	*Itenor	*Icalto	*Icant
!Bassus	!Tenor	!Altus	!Cantus
*clefF4	*clefGv2	*clefG2	*clefG2
*k[]	*k[]	*k[]	*k[]
*G:mix	*G:mix	*G:mix	*G:mix
*M3/2	*M3/2	*M3/2	*M3/2
=88	=88	=88	=88
1r	1r	1r	2.a
.	.	.	4b
2r	2r	2r	2cc
=89	=89	=89	=89
1r	1r	2.d	2dd
.	.	.	2a
.	.	4e	.
2r	2r	2f	2dd
=90	=90	=90	=90
1r	1r	2g	2ee
.	.	2d	2.ff
2r	2r	2f	.
.	.	.	4ee
=91	=91	=91	=91
1r	1r	2g	1dd
.	.	1e	.
2r	2r	.	2cc#
=92	=92	=92	=92
2.D	1.d	2.f	1.dd
4E	.	4g	.
2F	.	2a	.
=93	=93	=93	=93
2G	1.d	2b-	1r
2D	.	1a	.
2F	.	.	2r
=94	=94	=94	=94
2G	1.d	2d	1r
1E	.	1g	.
.	.	.	2r
=95	=95	=95	=95
2D	[1.d	2.f#	2.a
2r	.	.	.
.	.	4e	4g
2r	.	2f#	2a
=96	=96	=96	=96
2.G	1.d]	1.g	2.b
4A	.	.	4cc
2B	.	.	2dd
=97	=97	=97	=97
1c	[1.e	1r	2.g
.	.	.	4a
2G	.	2r	2b
=98	=98	=98	=98
2.A	1.e]	2.c	2.cc
4G	.	4d	4b
2E	.	2e	2g
=99	=99	=99	=99
2F#	1.d	2A	2a
2.G	.	2d	2.b
.	.	2G	.
4F#	.	.	4a
=100	=100	=100	=100
2G	[1.d	2B	1g
1D	.	1A	.
.	.	.	2f#
=101	=101	=101	=101
2.G	1.d]	2.B	1g
4A	.	4c	.
2B	.	2d	2r
=102	=102	=102	=102
2c	1r	2e	2.g
1G	.	2B	.
.	.	.	4a
.	2r	2d	2b
=103	=103	=103	=103
1r	1r	4c	2cc
.	.	4d	.
.	.	4e	2g
.	.	4f	.
2r	2r	2g	2b
=104	=104	=104	=104
2.A	1r	2e	2.cc
.	.	2a	.
4B	.	.	4dd
2c	2r	2g	2ee
=105	=105	=105	=105
2d	1r	2f	4a
.	.	.	4b
2A	.	2a	4cc
.	.	.	4dd
2c	2r	2g	2ee
=106	=106	=106	=106
2d	1r	2f	1dd
1A	.	1e	.
.	2r	.	2cc
=107	=107	=107	=107
2.D	1.d	2.d	2b
.	.	.	2.a
4E	.	4c	.
2F#	.	2A	.
.	.	.	4g
=108	=108	=108	=108
2G	1.d	2B	1g
1D	.	1A	.
.	.	.	2f#
=109	=109	=109	=109
2d	1.B	1G	1g
2d	.	.	.
2d	.	2G	2r
=110	=110	=110	=110
2.B	[1.d	2.G	2dd
.	.	.	2dd
4c	.	4A	.
2d	.	4B	2dd
.	.	4c	.
=111	=111	=111	=111
1G	1.d]	2d	2.b
.	.	1B	.
.	.	.	4cc
2r	.	.	2dd
=112	=112	=112	=112
2c	[1.e	2c	1g
2c	.	2r	.
2c	.	2r	2g
=113	=113	=113	=113
2.A	1.e]	2a	2.cc
.	.	2a	.
4B	.	.	4dd
2c	.	2a	2ee
=114	=114	=114	=114
2d	1.d	2.f#	1a
2D	.	.	.
.	.	4g	.
2F#	.	2a	2r
=115	=115	=115	=115
1G	[1.d	2d	2dd
.	.	2g	2dd
2r	.	2f#	2dd
=116	=116	=116	=116
2G	1.d]	1g	2.b
2G	.	.	.
.	.	.	4cc
2G	.	2r	2dd
=117	=117	=117	=117
2.E	1r	2g	2.ee
.	.	2g	.
4F	.	.	4dd
2G	2r	2g	2b
=118	=118	=118	=118
1C	1r	2.e	1cc
.	.	4f	.
2r	2r	2g	2b
=119	=119	=119	=119
2A	1r	2.a	2.cc
2A	.	.	.
.	.	4g	4dd
2A	2r	2e	2ee
=120	=120	=120	=120
2.F	1r	1f	2a
.	.	.	2dd
4G	.	.	.
2A	2r	2e	[2cc
=121	=121	=121	=121
2F	1r	2f	4cc]
.	.	.	4a
2G	.	2d	2b
2E	2r	2e	2cc
=122	=122	=122	=122
2.D	1.d	2f	2.dd
.	.	2.d	.
4E	.	.	8cc
.	.	.	8b
2F	.	.	2a
.	.	4c	.
=123	=123	=123	=123
2G	1.d	2B	1g
1D	.	1A	.
.	.	.	2f#
=124	=124	=124	=124
2d	1.B	[1.G	1.g
2d	.	.	.
2d	.	.	.
=125	=125	=125	=125
2.B	[1.d	1.G]	2dd
.	.	.	2dd
4c	.	.	.
2d	.	.	2dd
=126	=126	=126	=126
2.G	1.d]	1r	2.b
4A	.	.	4cc
2B	.	2r	2dd
=127	=127	=127	=127
2.c	[1.e	1r	2.g
4B	.	.	4a
2G	.	2r	2b
=128	=128	=128	=128
1A	1.e]	2a	2.cc
.	.	2a	.
.	.	.	4dd
2A	.	2a	2ee
=129	=129	=129	=129
2.D	1.d	2.f	2.ff
4E	.	4g	4ee
2F	.	2a	4dd
.	.	.	4cc
=130	=130	=130	=130
2G	[1.d	4d	2b
.	.	4e	.
2D	.	4f	2.dd
.	.	4g	.
2F	.	2a	.
.	.	.	4cc
=131	=131	=131	=131
2G	1.d]	1g	2b
1D	.	.	1a
.	.	2f#	.
=132	=132	=132	=132
1.G	1.d	1.g	1.b
==	==	==	==
*-	*-	*-	*-
!!!CDT: 1525/^1526/-1594/2/2
!!!OCY: Italia
!!!AGN: Mass (Tenor)
!!!AST: renaissance, vocal
!!!ASW: Antiphon
!!!PWK: Masses, Book I
!!!RNB: Cadence finals: D,C
!!!YOR: Le Opere Complete, v. 1, p. 1
!!!YOO: Rome, Italy: Fratelli Scalera
!!!END: 1992//
!!!EED: John Miller
!!!YEC: Copyright 2000, John Miller
!!!YEN: United States of America
!!!YEM: Rights to all derivative electronic formats reserved.
!!!YEM: Refer to licensing agreement for further details.
!!!YEM: This file must be accompanied by the licensing agreement.
!!!YEM: A copy of the licensing agreement may be found at http://www.music-cog.ohio-state.edu/HumdrumDatabases/Palestrina/license.txt
!!!EMD: converted to Humdrum by Bret Aarden
